source/images/icons/icon-editorial/aerosol.svg

<?xml version="1.0" encoding="UTF-8"?>
<svg width="80px" height="80px" viewBox="0 0 80 80" version="1.1" xmlns="http://www.w3.org/2000/svg" xmlns:xlink="http://www.w3.org/1999/xlink">
    <!-- Generator: Sketch 55.2 (78181) - https://sketchapp.com -->
    <title>Illustrative Icons/Aerosol</title>
    <desc>Created with Sketch.</desc>
    <g id="Illustrative-Icons/Aerosol" stroke="none" stroke-width="1" fill="none" fill-rule="evenodd">
        <path d="M42.3733334,15 C41.4528588,15 40.7066667,14.2538079 40.7066667,13.3333333 L40.7066667,10 L39.04,10 L39.04,13.3333333 C39.04,14.2538079 38.2938079,15 37.3733333,15 C36.4528588,15 35.7066667,14.2538079 35.7066667,13.3333333 L35.7066667,8.33333334 C35.7066667,7.41285875 36.4528588,6.66666667 37.3733333,6.66666667 L42.3733334,6.66666667 C43.2938079,6.66666667 44.04,7.41285875 44.04,8.33333334 L44.04,13.3333333 C44.04,14.2538079 43.2938079,15 42.3733334,15 Z M49.8733334,73.3333334 L29.6933333,73.3333334 C29.2467387,73.3293765 28.8200606,73.1479332 28.5074002,72.8290195 C28.1947397,72.5101059 28.0217802,72.0799189 28.0266667,71.6333334 C28.0266667,71.5766667 28.0266667,71.4916667 28.0266667,71.3850001 C28.0266667,71.1866667 28.0266667,70.9050001 28.0266667,70.5650001 C28.0266667,69.8983334 28.0166667,69.0000001 28.0133333,68.1066667 C28.0133333,66.3166667 28,64.5250001 28,64.5133334 L28,35.6666667 C28,34.7461921 28.7461921,34 29.6666667,34 C30.5871413,34 31.3333333,34.7461921 31.3333333,35.6666667 L31.3333333,64.5133334 C31.3333333,65.1266667 31.3433333,68.1083334 31.355,70.0000001 L48.2066667,70.0000001 L48.2066667,30 C48.2066667,28.1590509 46.7142825,26.6666667 44.8733334,26.6666667 L33.2066667,26.6666667 C32.2861921,26.6666667 31.54,25.9204746 31.54,25 C31.54,24.0795254 32.2861921,23.3333334 33.2066667,23.3333334 L44.8733334,23.3333334 C48.5552317,23.3333334 51.54,26.3181017 51.54,30 L51.54,71.6666668 C51.54,72.5871413 50.7938079,73.3333334 49.8733334,73.3333334 Z M29.6516667,31.445 C30.4497181,31.445 31.0966667,30.7980515 31.0966667,30 C31.0966667,29.2019486 30.4497181,28.555 29.6516667,28.555 C28.8536152,28.555 28.2066667,29.2019486 28.2066667,30 C28.2066667,30.7980515 28.8536152,31.445 29.6516667,31.445 Z M58.2066667,8.33333334 C59.1271413,8.33333334 59.8733334,7.58714125 59.8733334,6.66666667 C59.8733334,5.74619208 59.1271413,5 58.2066667,5 C57.2861921,5 56.54,5.74619208 56.54,6.66666667 C56.54,7.58714125 57.2861921,8.33333334 58.2066667,8.33333334 Z M58.2066667,13.3333333 C59.1271413,13.3333333 59.8733334,12.5871413 59.8733334,11.6666667 C59.8733334,10.7461921 59.1271413,10 58.2066667,10 C57.2861921,10 56.54,10.7461921 56.54,11.6666667 C56.54,12.5871413 57.2861921,13.3333333 58.2066667,13.3333333 Z M58.2066667,18.3333334 C59.1271413,18.3333334 59.8733334,17.5871413 59.8733334,16.6666667 C59.8733334,15.7461921 59.1271413,15 58.2066667,15 C57.2861921,15 56.54,15.7461921 56.54,16.6666667 C56.54,17.5871413 57.2861921,18.3333334 58.2066667,18.3333334 Z M54.04,15.8333333 C54.9604746,15.8333333 55.7066667,15.0871413 55.7066667,14.1666667 C55.7066667,13.2461921 54.9604746,12.5 54.04,12.5 C53.1195254,12.5 52.3733334,13.2461921 52.3733334,14.1666667 C52.3733334,15.0871413 53.1195254,15.8333333 54.04,15.8333333 Z M49.8733334,13.3333333 C50.7938079,13.3333333 51.54,12.5871413 51.54,11.6666667 C51.54,10.7461921 50.7938079,10 49.8733334,10 C48.9528588,10 48.2066667,10.7461921 48.2066667,11.6666667 C48.2066667,12.5871413 48.9528588,13.3333333 49.8733334,13.3333333 Z M54.04,10.8333333 C54.9604746,10.8333333 55.7066667,10.0871413 55.7066667,9.16666667 C55.7066667,8.24619209 54.9604746,7.5 54.04,7.5 C53.1195254,7.5 52.3733334,8.24619209 52.3733334,9.16666667 C52.3733334,10.0871413 53.1195254,10.8333333 54.04,10.8333333 Z M44.8733334,26.6666666 L33.2066667,26.6666666 C32.6933088,26.6666666 32.2086004,26.4300665 31.8927758,26.0253553 C31.5769513,25.6206441 31.465254,25.0929707 31.59,24.595 L32.625,20.4533334 C33.1817994,18.2274134 35.1821635,16.6661536 37.4766667,16.6666666 L42.2716667,16.6666666 C44.5655486,16.6669184 46.565018,18.2280162 47.1216667,20.4533334 C47.2777266,21.0350141 47.1078369,21.6556409 46.6772768,22.0767409 C46.2467167,22.4978409 45.6224693,22.6539027 45.0443986,22.4849604 C44.4663279,22.3160181 44.0243655,21.8483544 43.8883334,21.2616667 C43.7025682,20.5201149 43.0361323,20.0000201 42.2716667,20 L37.4766667,20 C36.712201,20.0000201 36.0457652,20.5201149 35.86,21.2616667 L35.3416667,23.3333334 L44.8733334,23.3333334 C45.7938079,23.3333334 46.54,24.0795254 46.54,25 C46.54,25.9204746 45.7938079,26.6666666 44.8733334,26.6666666 Z" id="Shape-color" fill="#ADB5BD"></path>
    </g>
</svg>

<svg width="80" height="80">
    <title>
        Illustrative Icons/Aerosol
    </title>
    <path d="M42.373 15c-.92 0-1.666-.746-1.666-1.667V10H39.04v3.333a1.667 1.667 0 0 1-3.333 0v-5c0-.92.746-1.666 1.666-1.666h5c.92 0 1.667.746 1.667 1.666v5c0 .92-.746 1.667-1.667 1.667zm7.5 58.333h-20.18a1.682 1.682 0 0 1-1.666-1.7v-.248-.82c0-.667-.01-1.565-.014-2.458 0-1.79-.013-3.582-.013-3.594V35.667a1.667 1.667 0 0 1 3.333 0v28.846c0 .614.01 3.595.022 5.487h16.852V30a3.333 3.333 0 0 0-3.334-3.333H33.207a1.667 1.667 0 0 1 0-3.334h11.666A6.667 6.667 0 0 1 51.54 30v41.667c0 .92-.746 1.666-1.667 1.666zM29.652 31.445a1.445 1.445 0 1 0 0-2.89 1.445 1.445 0 0 0 0 2.89zM58.207 8.333a1.667 1.667 0 1 0 0-3.333 1.667 1.667 0 0 0 0 3.333zm0 5a1.667 1.667 0 1 0 0-3.333 1.667 1.667 0 0 0 0 3.333zm0 5a1.667 1.667 0 1 0 0-3.333 1.667 1.667 0 0 0 0 3.333zm-4.167-2.5a1.667 1.667 0 1 0 0-3.333 1.667 1.667 0 0 0 0 3.333zm-4.167-2.5a1.667 1.667 0 1 0 0-3.333 1.667 1.667 0 0 0 0 3.333zm4.167-2.5a1.667 1.667 0 1 0 0-3.333 1.667 1.667 0 0 0 0 3.333zm-9.167 15.834H33.207a1.667 1.667 0 0 1-1.617-2.072l1.035-4.142a5 5 0 0 1 4.852-3.786h4.795a5 5 0 0 1 4.85 3.786 1.667 1.667 0 1 1-3.234.809A1.667 1.667 0 0 0 42.272 20h-4.795c-.765 0-1.431.52-1.617 1.262l-.518 2.071h9.531a1.667 1.667 0 1 1 0 3.334z" fill="#ADB5BD" fill-rule="evenodd"/>
</svg>
